src/assets/img/instagram.svg

<svg width="38" height="38" viewBox="0 0 38 38" fill="none" xmlns="http://www.w3.org/2000/svg">
<path fill-rule="evenodd" clip-rule="evenodd" d="M18.8821 0.292969C13.7694 0.292969 13.1294 0.313884 11.1216 0.40591C9.11794 0.497936 7.74905 0.815845 6.55167 1.2812C5.29573 1.75382 4.158 2.4947 3.21781 3.45218C2.26051 4.39252 1.51965 5.53021 1.04683 6.78604C0.58147 7.98343 0.262515 9.35232 0.171535 11.357C0.0805545 13.3638 0.0585938 14.0028 0.0585938 19.1165C0.0585938 24.2302 0.0795088 24.8692 0.171535 26.877C0.263561 28.8807 0.58147 30.2496 1.04683 31.447C1.51944 32.7029 2.26032 33.8406 3.21781 34.7808C4.26356 35.8266 5.31454 36.4707 6.55167 36.9518C7.74905 37.4172 9.11794 37.7361 11.1216 37.8271C13.1294 37.9181 13.7694 37.94 18.8821 37.94C23.9948 37.94 24.6348 37.9191 26.6426 37.8271C28.6463 37.7351 30.0152 37.4172 31.2126 36.9518C32.4685 36.4791 33.6062 35.7383 34.5464 34.7808C35.5922 33.7351 36.2364 32.6841 36.7174 31.447C37.1828 30.2496 37.5017 28.8807 37.5927 26.877C37.6837 24.8692 37.7057 24.2292 37.7057 19.1165C37.7057 14.0038 37.6847 13.3638 37.5927 11.356C37.5007 9.35232 37.1828 7.98343 36.7174 6.78604C36.2448 5.53012 35.5039 4.3924 34.5464 3.45218C33.6061 2.49488 32.4684 1.75403 31.2126 1.2812C30.0152 0.815845 28.6463 0.49689 26.6416 0.40591C24.6348 0.31493 23.9958 0.292969 18.8821 0.292969ZM18.8821 3.68434C23.908 3.68434 24.5041 3.70421 26.4889 3.79415C28.3242 3.87781 29.3208 4.18421 29.9838 4.44251C30.8623 4.78343 31.4897 5.19232 32.1485 5.85009C32.8074 6.50892 33.2152 7.13637 33.5561 8.0148C33.8144 8.67781 34.1208 9.67441 34.2045 11.5097C34.2944 13.4945 34.3143 14.0906 34.3143 19.1165C34.3143 24.1424 34.2944 24.7385 34.2045 26.7233C34.1208 28.5586 33.8144 29.5552 33.5561 30.2182C33.2546 31.0359 32.7736 31.7756 32.1485 32.3829C31.4897 33.0417 30.8623 33.4496 29.9838 33.7905C29.3208 34.0488 28.3242 34.3552 26.4889 34.4389C24.5041 34.5288 23.9091 34.5487 18.8821 34.5487C13.8552 34.5487 13.2602 34.5288 11.2753 34.4389C9.44003 34.3552 8.44343 34.0488 7.78042 33.7905C6.96273 33.489 6.22303 33.008 5.61572 32.3829C4.99068 31.7756 4.5097 31.0359 4.20814 30.2182C3.94984 29.5552 3.64343 28.5586 3.55977 26.7233C3.46984 24.7385 3.44997 24.1424 3.44997 19.1165C3.44997 14.0906 3.46984 13.4945 3.55977 11.5097C3.64343 9.67441 3.94984 8.67781 4.20814 8.0148C4.54905 7.13637 4.95794 6.50892 5.61572 5.85009C6.27454 5.19127 6.90199 4.78343 7.78042 4.44251C8.44343 4.18421 9.44003 3.87781 11.2753 3.79415C13.2602 3.70421 13.8562 3.68434 18.8821 3.68434Z" fill="white"/>
<path fill-rule="evenodd" clip-rule="evenodd" d="M18.8821 25.3973C18.0573 25.3973 17.2406 25.2348 16.4786 24.9192C15.7166 24.6035 15.0242 24.1409 14.4409 23.5577C13.8577 22.9745 13.3951 22.2821 13.0794 21.5201C12.7638 20.758 12.6013 19.9413 12.6013 19.1165C12.6013 18.2917 12.7638 17.475 13.0794 16.7129C13.3951 15.9509 13.8577 15.2585 14.4409 14.6753C15.0242 14.0921 15.7166 13.6294 16.4786 13.3138C17.2406 12.9982 18.0573 12.8357 18.8821 12.8357C20.5479 12.8357 22.1454 13.4974 23.3233 14.6753C24.5012 15.8532 25.1629 17.4507 25.1629 19.1165C25.1629 20.7823 24.5012 22.3798 23.3233 23.5577C22.1454 24.7356 20.5479 25.3973 18.8821 25.3973ZM18.8821 9.44121C16.3161 9.44121 13.8551 10.4606 12.0407 12.275C10.2262 14.0895 9.20683 16.5505 9.20683 19.1165C9.20683 21.6825 10.2262 24.1435 12.0407 25.958C13.8551 27.7724 16.3161 28.7918 18.8821 28.7918C21.4482 28.7918 23.9091 27.7724 25.7236 25.958C27.5381 24.1435 28.5574 21.6825 28.5574 19.1165C28.5574 16.5505 27.5381 14.0895 25.7236 12.275C23.9091 10.4606 21.4482 9.44121 18.8821 9.44121ZM31.3726 9.26552C31.3726 9.87208 31.1316 10.4538 30.7027 10.8827C30.2738 11.3116 29.6921 11.5526 29.0855 11.5526C28.479 11.5526 27.8972 11.3116 27.4683 10.8827C27.0394 10.4538 26.7985 9.87208 26.7985 9.26552C26.7985 8.65895 27.0394 8.07723 27.4683 7.64832C27.8972 7.21942 28.479 6.97846 29.0855 6.97846C29.6921 6.97846 30.2738 7.21942 30.7027 7.64832C31.1316 8.07723 31.3726 8.65895 31.3726 9.26552Z" fill="white"/>
</svg>

<svg xmlns="http://www.w3.org/2000/svg" fill="none" viewBox="0 0 38 38"><path fill="#fff" fill-rule="evenodd" d="M18.882.293c-5.113 0-5.753.02-7.76.113-2.004.092-3.373.41-4.57.875a9.227 9.227 0 0 0-3.334 2.171 9.234 9.234 0 0 0-2.171 3.334C.58 7.983.263 9.352.172 11.357c-.091 2.007-.113 2.646-.113 7.76 0 5.113.02 5.752.113 7.76.092 2.004.41 3.373.875 4.57a9.227 9.227 0 0 0 2.17 3.334 9.235 9.235 0 0 0 3.335 2.17c1.197.466 2.566.785 4.57.876 2.007.091 2.647.113 7.76.113 5.113 0 5.753-.02 7.76-.113 2.004-.092 3.373-.41 4.57-.875a9.228 9.228 0 0 0 3.334-2.171 9.233 9.233 0 0 0 2.171-3.334c.466-1.197.785-2.566.876-4.57.09-2.008.113-2.648.113-7.76 0-5.113-.021-5.753-.113-7.761-.092-2.004-.41-3.373-.876-4.57a9.227 9.227 0 0 0-2.17-3.334 9.234 9.234 0 0 0-3.334-2.17C30.015.815 28.646.496 26.642.405c-2.007-.091-2.646-.113-7.76-.113zm0 3.391c5.026 0 5.622.02 7.607.11 1.835.084 2.832.39 3.495.649.878.34 1.506.75 2.164 1.407a5.825 5.825 0 0 1 1.408 2.165c.258.663.565 1.66.649 3.495.09 1.985.11 2.58.11 7.606s-.02 5.622-.11 7.607c-.084 1.836-.39 2.832-.649 3.495a5.83 5.83 0 0 1-1.407 2.165 5.826 5.826 0 0 1-2.165 1.407c-.663.259-1.66.565-3.495.649-1.985.09-2.58.11-7.607.11s-5.622-.02-7.607-.11c-1.835-.084-2.832-.39-3.495-.648a5.83 5.83 0 0 1-2.164-1.408 5.832 5.832 0 0 1-1.408-2.165c-.258-.663-.565-1.66-.648-3.495-.09-1.985-.11-2.58-.11-7.607 0-5.025.02-5.621.11-7.606.083-1.836.39-2.832.648-3.495A5.84 5.84 0 0 1 5.616 5.85 5.826 5.826 0 0 1 7.78 4.443c.663-.259 1.66-.565 3.495-.649 1.985-.09 2.581-.11 7.607-.11z" clip-rule="evenodd"/><path fill="#fff" fill-rule="evenodd" d="M18.882 25.397a6.281 6.281 0 1 1 0-12.562 6.281 6.281 0 0 1 0 12.562zm0-15.956a9.675 9.675 0 1 0 0 19.35 9.675 9.675 0 0 0 0-19.35zm12.49-.175a2.287 2.287 0 1 1-4.574 0 2.287 2.287 0 0 1 4.575 0z" clip-rule="evenodd"/></svg>
